public/static/img/common/open_eye_white.svg

<svg xmlns="http://www.w3.org/2000/svg" width="16" height="16" viewBox="0 0 16 16" fill="none">
  <path d="M8.00008 3.99935C9.22591 3.99527 10.428 4.3372 11.4682 4.98583C12.5083 5.63446 13.3443 6.56346 13.8801 7.66602C12.7801 9.91268 10.5267 11.3327 8.00008 11.3327C5.47341 11.3327 3.22008 9.91268 2.12008 7.66602C2.65583 6.56346 3.49184 5.63446 4.532 4.98583C5.57217 4.3372 6.77426 3.99527 8.00008 3.99935ZM8.00008 2.66602C4.66675 2.66602 1.82008 4.73935 0.666748 7.66602C1.82008 10.5927 4.66675 12.666 8.00008 12.666C11.3334 12.666 14.1801 10.5927 15.3334 7.66602C14.1801 4.73935 11.3334 2.66602 8.00008 2.66602ZM8.00008 5.99935C8.44208 5.99939 8.86596 6.17501 9.17849 6.48756C9.49101 6.80012 9.66659 7.22402 9.66659 7.66602C9.66659 8.10802 9.49101 8.53191 9.17849 8.84447C8.86596 9.15703 8.44208 9.33264 8.00008 9.33268C7.55808 9.33264 7.1342 9.15703 6.82167 8.84447C6.50915 8.53191 6.33358 8.10802 6.33358 7.66602C6.33358 7.22402 6.50915 6.80012 6.82167 6.48756C7.1342 6.17501 7.55808 5.99939 8.00008 5.99935ZM8.00008 4.66602C6.34675 4.66602 5.00008 6.01268 5.00008 7.66602C5.00008 9.31935 6.34675 10.666 8.00008 10.666C9.65341 10.666 11.0001 9.31935 11.0001 7.66602C11.0001 6.01268 9.65341 4.66602 8.00008 4.66602Z" fill="white"/>
</svg>

<svg xmlns="http://www.w3.org/2000/svg" width="16" height="16" fill="none"><path d="M8 4a6.513 6.513 0 0 1 5.88 3.666A6.514 6.514 0 0 1 8 11.333a6.513 6.513 0 0 1-5.88-3.667A6.513 6.513 0 0 1 8 3.999Zm0-1.334c-3.333 0-6.18 2.073-7.333 5 1.153 2.927 4 5 7.333 5s6.18-2.073 7.333-5c-1.153-2.927-4-5-7.333-5Zm0 3.333a1.667 1.667 0 1 1 0 3.334 1.667 1.667 0 0 1 0-3.334Zm0-1.333c-1.653 0-3 1.347-3 3s1.347 3 3 3 3-1.347 3-3-1.347-3-3-3Z" fill="#fff"/></svg>
